hosted_logos/open-vswitch.svg

<?xml version="1.0" encoding="UTF-8"?>
<svg xmlns="http://www.w3.org/2000/svg" xmlns:xlink="http://www.w3.org/1999/xlink" width="347pt" height="226pt" viewBox="0 0 347 226" version="1.1">
<defs>
<clipPath id="clip1">
  <path d="M 0 0.414062 L 276 0.414062 L 276 226 L 0 226 Z M 0 0.414062 "/>
</clipPath>
<clipPath id="clip2">
  <path d="M 32 0.414062 L 346.058594 0.414062 L 346.058594 226 L 32 226 Z M 32 0.414062 "/>
</clipPath>
<clipPath id="clip3">
  <path d="M 126 0.414062 L 346.058594 0.414062 L 346.058594 226 L 126 226 Z M 126 0.414062 "/>
</clipPath>
</defs>
<g id="surface1">
<path style=" stroke:none;fill-rule:nonzero;fill:rgb(13.729858%,12.159729%,12.548828%);fill-opacity:1;" d="M 59.433594 191.90625 C 59.433594 183.132812 52.882812 175.789062 43.527344 175.789062 C 34.171875 175.789062 27.617188 183.132812 27.617188 191.90625 C 27.617188 200.996094 34.910156 208.027344 43.527344 208.027344 C 52.140625 208.027344 59.433594 200.996094 59.433594 191.90625 Z M 64.402344 191.90625 C 64.402344 203.75 55.046875 212.683594 43.527344 212.683594 C 32.003906 212.683594 22.648438 203.75 22.648438 191.90625 C 22.648438 180.492188 32.109375 171.136719 43.527344 171.136719 C 54.941406 171.136719 64.402344 180.492188 64.402344 191.90625 "/>
<path style=" stroke:none;fill-rule:nonzero;fill:rgb(13.729858%,12.159729%,12.548828%);fill-opacity:1;" d="M 88.660156 199.46875 C 88.660156 194.660156 85.753906 190.585938 80.625 190.585938 C 75.710938 190.585938 72.800781 194.871094 72.800781 199.46875 C 72.800781 204.121094 75.605469 208.449219 80.625 208.449219 C 85.804688 208.449219 88.660156 204.332031 88.660156 199.46875 Z M 73.066406 191.222656 L 73.171875 191.222656 C 75.128906 188.261719 78.089844 186.359375 81.789062 186.359375 C 88.921875 186.359375 93.417969 192.542969 93.417969 199.308594 C 93.417969 206.390625 89.1875 212.683594 81.578125 212.683594 C 78.089844 212.683594 75.074219 210.777344 73.171875 207.976562 L 73.066406 207.976562 L 73.066406 226 L 68.3125 226 L 68.3125 187.097656 L 73.066406 187.097656 L 73.066406 191.222656 "/>
<path style=" stroke:none;fill-rule:nonzero;fill:rgb(13.729858%,12.159729%,12.548828%);fill-opacity:1;" d="M 115.03125 196.667969 C 114.449219 192.964844 112.019531 190.484375 108.210938 190.484375 C 104.511719 190.484375 101.765625 193.125 101.183594 196.667969 Z M 100.917969 200.257812 C 100.972656 204.488281 103.824219 208.449219 108.371094 208.449219 C 112.019531 208.449219 113.972656 206.601562 115.769531 203.644531 L 119.789062 205.910156 C 117.460938 210.195312 113.128906 212.683594 108.316406 212.683594 C 100.761719 212.683594 96.160156 206.972656 96.160156 199.679688 C 96.160156 192.066406 100.230469 186.359375 108.210938 186.359375 C 116.085938 186.359375 119.789062 192.171875 119.789062 199.519531 L 119.789062 200.257812 L 100.917969 200.257812 "/>
<path style=" stroke:none;fill-rule:nonzero;fill:rgb(13.729858%,12.159729%,12.548828%);fill-opacity:1;" d="M 128.609375 190.429688 L 128.714844 190.429688 C 130.195312 187.785156 133.15625 186.359375 136.167969 186.359375 C 143.148438 186.359375 144.941406 191.0625 144.941406 197.089844 L 144.941406 211.835938 L 140.183594 211.835938 L 140.183594 197.667969 C 140.183594 193.441406 139.605469 190.585938 134.742188 190.585938 C 128.609375 190.585938 128.609375 195.980469 128.609375 200.46875 L 128.609375 211.835938 L 123.855469 211.835938 L 123.855469 187.097656 L 128.609375 187.097656 L 128.609375 190.429688 "/>
<path style=" stroke:none;fill-rule:nonzero;fill:rgb(13.729858%,12.159729%,12.548828%);fill-opacity:1;" d="M 175.226562 202.53125 L 182.363281 187.097656 L 187.699219 187.097656 L 175.226562 212.683594 L 162.804688 187.097656 L 168.140625 187.097656 L 175.226562 202.53125 "/>
<path style=" stroke:none;fill-rule:nonzero;fill:rgb(13.729858%,12.159729%,12.548828%);fill-opacity:1;" d="M 208.519531 179.542969 C 207.039062 177.058594 205.136719 175.789062 202.125 175.789062 C 198.953125 175.789062 195.464844 177.957031 195.464844 181.445312 C 195.464844 184.5625 198.527344 186.199219 201.015625 187.148438 L 203.867188 188.261719 C 209.523438 190.484375 213.75 193.601562 213.75 200.257812 C 213.75 207.5 208.148438 212.683594 201.015625 212.683594 C 194.5625 212.683594 189.542969 207.917969 188.699219 201.527344 L 193.71875 200.46875 C 193.664062 204.859375 197.160156 208.027344 201.4375 208.027344 C 205.722656 208.027344 208.785156 204.433594 208.785156 200.257812 C 208.785156 195.980469 205.351562 194.132812 201.910156 192.703125 L 199.167969 191.535156 C 194.621094 189.585938 190.496094 186.988281 190.496094 181.445312 C 190.496094 174.996094 196.203125 171.136719 202.226562 171.136719 C 206.671875 171.136719 210.316406 173.308594 212.484375 177.160156 L 208.519531 179.542969 "/>
<path style=" stroke:none;fill-rule:nonzero;fill:rgb(13.729858%,12.159729%,12.548828%);fill-opacity:1;" d="M 227.117188 202.851562 L 234.414062 185.726562 L 241.652344 202.851562 L 248.84375 187.097656 L 254.230469 187.097656 L 241.652344 212.683594 L 234.414062 196.140625 L 227.117188 212.683594 L 214.542969 187.097656 L 219.933594 187.097656 L 227.117188 202.851562 "/>
<path style=" stroke:none;fill-rule:nonzero;fill:rgb(13.729858%,12.159729%,12.548828%);fill-opacity:1;" d="M 262.421875 211.835938 L 257.664062 211.835938 L 257.664062 187.097656 L 262.421875 187.097656 Z M 263.320312 175.789062 C 263.320312 177.585938 261.84375 179.015625 260.042969 179.015625 C 258.246094 179.015625 256.769531 177.585938 256.769531 175.789062 C 256.769531 173.941406 258.246094 172.460938 260.042969 172.460938 C 261.84375 172.460938 263.320312 173.941406 263.320312 175.789062 "/>
<path style=" stroke:none;fill-rule:nonzero;fill:rgb(13.729858%,12.159729%,12.548828%);fill-opacity:1;" d="M 275.480469 211.835938 L 270.722656 211.835938 L 270.722656 191.535156 L 268.132812 191.535156 L 268.132812 187.097656 L 270.722656 187.097656 L 270.722656 177.640625 L 275.480469 177.640625 L 275.480469 187.097656 L 280.125 187.097656 L 280.125 191.535156 L 275.480469 191.535156 L 275.480469 211.835938 "/>
<path style=" stroke:none;fill-rule:nonzero;fill:rgb(13.729858%,12.159729%,12.548828%);fill-opacity:1;" d="M 300.894531 194.132812 C 298.996094 191.964844 296.671875 190.800781 293.8125 190.800781 C 289.164062 190.800781 285.570312 194.921875 285.570312 199.46875 C 285.570312 204.542969 289.109375 208.238281 294.132812 208.238281 C 296.878906 208.238281 299.097656 206.972656 300.894531 204.964844 L 300.894531 211.042969 C 298.730469 212.207031 296.5625 212.683594 294.082031 212.683594 C 286.78125 212.683594 280.8125 207.078125 280.8125 199.679688 C 280.8125 192.015625 286.730469 186.359375 294.34375 186.359375 C 296.5625 186.359375 298.996094 186.890625 300.894531 187.996094 L 300.894531 194.132812 "/>
<path style=" stroke:none;fill-rule:nonzero;fill:rgb(13.729858%,12.159729%,12.548828%);fill-opacity:1;" d="M 310.777344 165.960938 L 310.777344 190.429688 L 310.886719 190.429688 C 312.363281 187.785156 315.324219 186.359375 318.339844 186.359375 C 325.3125 186.359375 327.109375 191.0625 327.109375 197.089844 L 327.109375 211.835938 L 322.355469 211.835938 L 322.355469 197.667969 C 322.355469 193.441406 321.769531 190.585938 316.910156 190.585938 C 310.777344 190.585938 310.777344 195.980469 310.777344 200.46875 L 310.777344 211.835938 L 306.019531 211.835938 L 306.019531 165.960938 L 310.777344 165.960938 "/>
<path style=" stroke:none;fill-rule:nonzero;fill:rgb(13.729858%,12.159729%,12.548828%);fill-opacity:1;" d="M 127.691406 74.546875 C 127.691406 45.195312 105.769531 20.621094 74.480469 20.621094 C 43.191406 20.621094 21.269531 45.195312 21.269531 74.546875 C 21.269531 104.949219 45.664062 128.460938 74.480469 128.460938 C 103.296875 128.460938 127.691406 104.949219 127.691406 74.546875 Z M 144.308594 74.546875 C 144.308594 114.140625 113.019531 144.019531 74.480469 144.019531 C 35.941406 144.019531 4.652344 114.140625 4.652344 74.546875 C 4.652344 36.355469 36.292969 5.066406 74.480469 5.066406 C 112.664062 5.066406 144.308594 36.355469 144.308594 74.546875 "/>
<g clip-path="url(#clip1)" clip-rule="nonzero">
<path style="fill:none;stroke-width:93.0377;stroke-linecap:butt;stroke-linejoin:miter;stroke:rgb(13.729858%,12.159729%,12.548828%);stroke-opacity:1;stroke-miterlimit:10;" d="M 1276.914062 1514.53125 C 1276.914062 1808.046875 1057.695312 2053.789062 744.804688 2053.789062 C 431.914062 2053.789062 212.695312 1808.046875 212.695312 1514.53125 C 212.695312 1210.507812 456.640625 975.390625 744.804688 975.390625 C 1032.96875 975.390625 1276.914062 1210.507812 1276.914062 1514.53125 Z M 1443.085938 1514.53125 C 1443.085938 1118.59375 1130.195312 819.804688 744.804688 819.804688 C 359.414062 819.804688 46.523438 1118.59375 46.523438 1514.53125 C 46.523438 1896.445312 362.929688 2209.335938 744.804688 2209.335938 C 1126.640625 2209.335938 1443.085938 1896.445312 1443.085938 1514.53125 Z M 1443.085938 1514.53125 " transform="matrix(0.1,0,0,-0.1,0,226)"/>
</g>
<path style=" stroke:none;fill-rule:nonzero;fill:rgb(13.729858%,12.159729%,12.548828%);fill-opacity:1;" d="M 205.464844 105.535156 L 229.328125 53.914062 L 247.1875 53.914062 L 205.464844 139.476562 L 163.917969 53.914062 L 181.773438 53.914062 L 205.464844 105.535156 "/>
<g clip-path="url(#clip2)" clip-rule="nonzero">
<path style="fill:none;stroke-width:93.0377;stroke-linecap:butt;stroke-linejoin:miter;stroke:rgb(13.729858%,12.159729%,12.548828%);stroke-opacity:1;stroke-miterlimit:10;" d="M 2054.648438 1204.648438 L 2293.28125 1720.859375 L 2471.875 1720.859375 L 2054.648438 865.234375 L 1639.179688 1720.859375 L 1817.734375 1720.859375 Z M 2054.648438 1204.648438 " transform="matrix(0.1,0,0,-0.1,0,226)"/>
</g>
<path style=" stroke:none;fill-rule:nonzero;fill:rgb(13.729858%,12.159729%,12.548828%);fill-opacity:1;" d="M 323.902344 33.175781 C 318.949219 24.867188 312.589844 20.621094 302.507812 20.621094 C 291.90625 20.621094 280.234375 27.871094 280.234375 39.542969 C 280.234375 49.972656 290.492188 55.449219 298.800781 58.632812 L 308.34375 62.34375 C 327.257812 69.769531 341.402344 80.199219 341.402344 102.476562 C 341.402344 126.695312 322.660156 144.019531 298.800781 144.019531 C 277.230469 144.019531 260.4375 128.109375 257.609375 106.71875 L 274.402344 103.183594 C 274.230469 117.855469 285.894531 128.460938 300.214844 128.460938 C 314.53125 128.460938 324.785156 116.441406 324.785156 102.476562 C 324.785156 88.15625 313.296875 81.964844 301.800781 77.195312 L 292.613281 73.304688 C 277.410156 66.765625 263.621094 58.101562 263.621094 39.542969 C 263.621094 17.972656 282.714844 5.066406 302.867188 5.066406 C 317.714844 5.066406 329.914062 12.316406 337.164062 25.21875 L 323.902344 33.175781 "/>
<g clip-path="url(#clip3)" clip-rule="nonzero">
<path style="fill:none;stroke-width:93.0377;stroke-linecap:butt;stroke-linejoin:miter;stroke:rgb(13.729858%,12.159729%,12.548828%);stroke-opacity:1;stroke-miterlimit:10;" d="M 3239.023438 1928.242188 C 3189.492188 2011.328125 3125.898438 2053.789062 3025.078125 2053.789062 C 2919.0625 2053.789062 2802.34375 1981.289062 2802.34375 1864.570312 C 2802.34375 1760.273438 2904.921875 1705.507812 2988.007812 1673.671875 L 3083.4375 1636.5625 C 3272.578125 1562.304688 3414.023438 1458.007812 3414.023438 1235.234375 C 3414.023438 993.046875 3226.601562 819.804688 2988.007812 819.804688 C 2772.304688 819.804688 2604.375 978.90625 2576.09375 1192.8125 L 2744.023438 1228.164062 C 2742.304688 1081.445312 2858.945312 975.390625 3002.148438 975.390625 C 3145.3125 975.390625 3247.851562 1095.585938 3247.851562 1235.234375 C 3247.851562 1378.4375 3132.96875 1440.351562 3018.007812 1488.046875 L 2926.132812 1526.953125 C 2774.101562 1592.34375 2636.210938 1678.984375 2636.210938 1864.570312 C 2636.210938 2080.273438 2827.148438 2209.335938 3028.671875 2209.335938 C 3177.148438 2209.335938 3299.140625 2136.835938 3371.640625 2007.8125 Z M 3239.023438 1928.242188 " transform="matrix(0.1,0,0,-0.1,0,226)"/>
</g>
<path style=" stroke:none;fill-rule:nonzero;fill:rgb(15.228271%,58.827209%,23.484802%);fill-opacity:1;" d="M 53.292969 93.421875 L 90.550781 93.421875 L 90.550781 79.511719 L 53.292969 79.511719 Z M 53.292969 93.421875 "/>
<path style=" stroke:none;fill-rule:nonzero;fill:rgb(15.228271%,58.827209%,23.484802%);fill-opacity:1;" d="M 31.03125 85.789062 L 53.882812 104.847656 L 53.882812 67.09375 L 31.03125 85.789062 "/>
<path style=" stroke:none;fill-rule:nonzero;fill:rgb(15.228271%,58.827209%,23.484802%);fill-opacity:1;" d="M 58.699219 71.3125 L 95.957031 71.3125 L 95.957031 57.402344 L 58.699219 57.402344 Z M 58.699219 71.3125 "/>
<path style=" stroke:none;fill-rule:nonzero;fill:rgb(15.228271%,58.827209%,23.484802%);fill-opacity:1;" d="M 118.214844 63.683594 L 95.367188 82.738281 L 95.367188 44.984375 L 118.214844 63.683594 "/>
</g>
</svg>

<svg xmlns="http://www.w3.org/2000/svg" role="img" viewBox="-6.92 -6.67 359.84 239.34"><title>Open vSwitch logo</title><defs><clipPath id="a"><path d="M0 .41406h276V226H0zm0 0"/></clipPath><clipPath id="b"><path d="M32 .41406h314.0586V226H32zm0 0"/></clipPath><clipPath id="c"><path d="M126 .41406h220.0586V226H126zm0 0"/></clipPath></defs><path fill="#231f20" d="M59.4336 191.90625c0-8.77344-6.55079-16.11719-15.90626-16.11719s-15.91015 7.34375-15.91015 16.11719c0 9.08984 7.29297 16.1211 15.91015 16.1211 8.61328 0 15.90625-7.03126 15.90625-16.1211zm4.96874 0c0 11.84375-9.35546 20.77734-20.875 20.77734-11.52343 0-20.8789-8.93359-20.8789-20.77734 0-11.41406 9.46093-20.76953 20.8789-20.76953 11.41407 0 20.875 9.35547 20.875 20.76953m24.25782 7.5625c0-4.8086-2.90625-8.88281-8.03516-8.88281-4.91406 0-7.82422 4.28515-7.82422 8.88281 0 4.65234 2.80469 8.98047 7.82422 8.98047 5.17969 0 8.03516-4.11719 8.03516-8.98047zm-15.59375-8.2461h.10546c1.95704-2.96093 4.91797-4.86327 8.6172-4.86327 7.1328 0 11.6289 6.18359 11.6289 12.94921 0 7.08203-4.23047 13.375-11.83984 13.375-3.48829 0-6.50391-1.90625-8.40626-4.70703h-.10546V226H68.3125v-38.90234h4.7539v4.125m41.96485 5.4453c-.58203-3.70312-3.01172-6.18358-6.82031-6.18358-3.69922 0-6.44531 2.64062-7.02735 6.18359zm-14.11328 3.58985c.05469 4.23047 2.90625 8.1914 7.45312 8.1914 3.64844 0 5.60157-1.84765 7.39844-4.80468l4.01953 2.26563c-2.32812 4.28515-6.66015 6.77343-11.47265 6.77343-7.5547 0-12.15625-5.71093-12.15625-13.0039 0-7.61328 4.0703-13.32031 12.05078-13.32031 7.875 0 11.57812 5.8125 11.57812 13.16015v.73828h-18.8711m27.69142-9.82812h.10546c1.48047-2.64453 4.44141-4.07031 7.45313-4.07031 6.98047 0 8.77344 4.70312 8.77344 10.73046v14.7461h-4.75782v-14.16797c0-4.22656-.57812-7.08203-5.4414-7.08203-6.13281 0-6.13281 5.39453-6.13281 9.88281v11.36719h-4.75391v-24.73828h4.7539v3.33203m46.6172 12.10156l7.13671-15.4336h5.33594l-12.47266 25.58594-12.42187-25.58593h5.33594l7.08593 15.43359m33.29297-22.98828c-1.48047-2.48438-3.38281-3.7539-6.39453-3.7539-3.17188 0-6.66016 2.16796-6.66016 5.65624 0 3.11719 3.0625 4.7539 5.55078 5.70313l2.85157 1.11328c5.65625 2.22266 9.88281 5.33984 9.88281 11.9961 0 7.24218-5.60156 12.42577-12.73438 12.42577-6.45312 0-11.47265-4.76562-12.3164-11.15625l5.01953-1.05859c-.05469 4.39063 3.4414 7.5586 7.71875 7.5586 4.28516 0 7.34766-3.59376 7.34766-7.76954 0-4.27734-3.4336-6.125-6.875-7.55469l-2.7422-1.16796c-4.54687-1.94922-8.67187-4.54688-8.67187-10.08985 0-6.44922 5.70703-10.3086 11.73047-10.3086 4.44531 0 8.08985 2.17188 10.25781 6.02345l-3.96484 2.3828m18.59766 23.3086l7.29687-17.125 7.23828 17.125 7.19141-15.7539h5.38672l-12.57813 25.58593-7.23828-16.54297-7.29687 16.54297-12.57422-25.58593h5.39062l7.1836 15.7539m35.30469 8.98438h-4.75782v-24.73828h4.75781zm.89843-36.04688c0 1.79688-1.47656 3.22656-3.27734 3.22656-1.79688 0-3.27344-1.42968-3.27344-3.22656 0-1.84765 1.47656-3.32812 3.27344-3.32812 1.80078 0 3.27734 1.48047 3.27734 3.32812m12.16016 36.04688h-4.75781v-20.30078h-2.58985v-4.4375h2.58985v-9.45703h4.7578v9.45703h4.64454v4.4375h-4.64453v20.30078m25.41406-17.70313c-1.89844-2.16797-4.22265-3.33203-7.08203-3.33203-4.64844 0-8.24219 4.1211-8.24219 8.66797 0 5.07422 3.53906 8.76953 8.5625 8.76953 2.7461 0 4.96485-1.26562 6.76172-3.27344v6.07813c-2.16406 1.16406-4.33203 1.64062-6.8125 1.64062-7.30078 0-13.26953-5.60547-13.26953-13.0039 0-7.66406 5.91797-13.32031 13.53125-13.32031 2.21875 0 4.65234.53125 6.55078 1.63671v6.13672m9.88281-28.17187v24.46875h.10938c1.47656-2.64453 4.4375-4.07031 7.45312-4.07031 6.97266 0 8.76954 4.70312 8.76954 10.73046v14.7461h-4.75391v-14.16797c0-4.22656-.58594-7.08203-5.44531-7.08203-6.13282 0-6.13282 5.39453-6.13282 9.88281v11.36719h-4.7578v-45.875h4.7578M127.69141 74.54688c0-29.35157-21.92188-53.92579-53.21094-53.92579S21.26953 45.19531 21.26953 74.54688c0 30.40234 24.39453 53.91406 53.21094 53.91406 28.8164 0 53.21094-23.51172 53.21094-53.91406zm16.61718 0c0 39.59374-31.28906 69.47265-69.82812 69.47265S4.65234 114.14063 4.65234 74.54687c0-38.1914 31.64063-69.48046 69.82813-69.48046 38.1836 0 69.82812 31.28906 69.82812 69.48046"/><g clip-path="url(#a)"><path fill="none" stroke="#231f20" stroke-miterlimit="10" stroke-width="9.3038" d="M127.6914 74.54688c0-29.35157-21.92187-53.92579-53.21093-53.92579S21.26953 45.19531 21.26953 74.54688c0 30.40234 24.39453 53.91406 53.21094 53.91406 28.8164 0 53.21094-23.51172 53.21094-53.91406zm16.6172 0c0 39.59374-31.28907 69.47265-69.82813 69.47265-38.53906 0-69.82813-29.8789-69.82813-69.47265 0-38.19141 31.64063-69.48047 69.82813-69.48047 38.1836 0 69.82812 31.28906 69.82812 69.48047zm0 0"/></g><path fill="#231f20" d="M205.46484 105.53516l23.86328-51.6211h17.85938l-41.72266 85.5625-41.54687-85.5625h17.85547l23.6914 51.6211"/><g clip-path="url(#b)"><path fill="none" stroke="#231f20" stroke-miterlimit="10" stroke-width="9.3038" d="M205.46484 105.53516l23.86329-51.6211h17.85937l-41.72266 85.5625-41.54687-85.5625h17.85547zm0 0"/></g><path fill="#231f20" d="M323.90234 33.17578c-4.95312-8.3086-11.3125-12.55469-21.39453-12.55469-10.60156 0-22.27344 7.25-22.27344 18.92188 0 10.42969 10.25782 15.90625 18.56641 19.08984l9.54297 3.71094c18.91406 7.42578 33.0586 17.85547 33.0586 40.13281 0 24.21875-18.7422 41.54297-42.60157 41.54297-21.57031 0-38.36328-15.91016-41.1914-37.30078l16.79296-3.53516c-.17187 14.67188 11.4922 25.27735 25.8125 25.27735 14.31641 0 24.57032-12.01953 24.57032-25.98438 0-14.32031-11.48829-20.51172-22.98438-25.28125l-9.1875-3.89062c-15.20312-6.53906-28.99219-15.20313-28.99219-33.76172 0-21.57031 19.09375-34.47656 39.2461-34.47656 14.84765 0 27.04687 7.25 34.29687 20.15234l-13.26172 7.95703"/><g clip-path="url(#c)"><path fill="none" stroke="#231f20" stroke-miterlimit="10" stroke-width="9.3038" d="M323.90234 33.17578c-4.95312-8.3086-11.3125-12.55469-21.39453-12.55469-10.60156 0-22.27344 7.25-22.27344 18.92188 0 10.42969 10.25782 15.90625 18.56641 19.08984l9.54297 3.71094c18.91406 7.42578 33.0586 17.85547 33.0586 40.13281 0 24.21875-18.7422 41.54297-42.60157 41.54297-21.57031 0-38.36328-15.91016-41.1914-37.30078l16.79296-3.53516c-.17187 14.67188 11.4922 25.27735 25.8125 25.27735 14.31641 0 24.57032-12.01953 24.57032-25.98438 0-14.32031-11.48828-20.51172-22.98438-25.28125l-9.1875-3.89062c-15.20312-6.53906-28.99219-15.20313-28.99219-33.76172 0-21.57031 19.09375-34.47656 39.2461-34.47656 14.84765 0 27.04687 7.25 34.29687 20.15234zm0 0"/></g><path fill="#27963c" d="M53.29297 93.42188h37.25781V79.51171H53.29297zm0 0"/><path fill="#27963c" d="M31.03125 85.78906l22.85156 19.0586V67.09375L31.03125 85.78906M58.69922 71.3125h37.25781V57.40234H58.69922zm0 0"/><path fill="#27963c" d="M118.21484 63.6836L95.3672 82.73827v-37.7539l22.84765 18.69921"/></svg>
